img/part6/7/3_燕山LOGO.svg

<svg width="175" height="54" viewBox="0 0 175 54" fill="none" xmlns="http://www.w3.org/2000/svg"><g clip-path="url(#clip0_30_175)"><path d="M128.79 34.4467V40.6891C128.79 40.6891 124.657 42.9225 125.511 44.4371C126.364 45.9518 129.251 49.1693 131.48 48.9083C133.708 48.6473 136.334 46.6064 141.517 46.2769C146.701 45.9475 164.804 45.1602 164.804 45.1602C164.804 45.1602 164.279 47.9884 165.526 48.382C166.772 48.7756 173.723 48.1852 173.792 44.5698C173.856 40.9544 173.463 32.9363 173.463 32.9363C173.463 32.9363 164.868 29.4749 164.74 31.4046C164.608 33.3299 164.804 39.7093 164.804 39.7093H152.93C152.93 39.7093 152.994 27.2201 153.455 26.3644C153.917 25.5087 155.62 20.5156 153.981 19.5272C152.341 18.5389 143.422 16.6349 142.303 16.8959C141.184 17.1569 143.614 21.1017 143.353 25.1108C143.093 29.1198 143.486 40.4923 143.486 40.4923C143.486 40.4923 134.827 41.9384 134.238 41.609C133.648 41.2795 133.977 39.3071 134.302 39.1103C134.626 38.9135 136.005 34.1814 128.794 34.4424L128.79 34.4467Z" fill="white"></path><path d="M0.687417 46.8037C0.687417 46.8037 0.162251 52.5883 0.687417 52.8493C1.21258 53.1103 3.83415 53.0461 4.29527 52.8493C4.75639 52.6525 4.16291 45.8153 0.687417 46.8037Z" fill="white"></path><path d="M45.8176 48.1169C44.7032 47.458 36.0444 45.4214 36.0444 45.4214L40.7026 52.849C40.7026 52.849 44.2464 53.5079 45.096 53.11C45.95 52.7164 46.932 48.7715 45.8176 48.1126V48.1169Z" fill="white"></path><path d="M23.0561 45.4214C23.0561 45.4214 25.6136 50.3503 26.5999 50.3503C27.5862 50.3503 29.2257 48.7715 29.0934 47.8858C28.961 47.0002 26.0107 44.7625 23.0604 45.4214H23.0561Z" fill="white"></path><path d="M12.429 45.4217C12.429 45.4217 14.0045 51.0737 15.1188 51.2705C16.2332 51.4673 17.7447 50.2864 18.0051 49.0371C18.2656 47.7877 14.9224 44.8954 12.429 45.4217Z" fill="white"></path><path d="M27.1891 37.9469C27.0568 37.3393 24.8921 37.6003 24.8921 37.6003C24.8921 37.6003 24.9561 35.2343 25.5496 34.708C26.1388 34.1817 28.3932 32.0767 27.2019 31.683C26.0107 31.2894 14.8157 33.172 14.8157 33.172C14.8157 33.172 14.8071 41.0745 15.2256 41.5922C15.644 42.1099 16.942 43.2951 18.0222 42.3752C19.1024 41.4553 18.795 40.8863 19.888 40.621C20.9811 40.36 26.3181 40.2701 26.3181 40.2701C26.3181 40.2701 27.3258 38.5502 27.1934 37.9426L27.1891 37.9469ZM23.0561 35.3669C22.8597 36.0258 22.5096 38.302 22.5096 38.302C22.5096 38.302 19.5806 38.5202 19.2732 38.563C18.9658 38.6058 18.7694 39.6583 18.7694 39.6583H18.0179C17.7703 39.6583 18.0179 34.4855 18.0179 34.4855C24.4864 32.2007 23.2525 34.7037 23.0561 35.3626V35.3669Z" fill="white"></path><path d="M6.40875 23.6906C7.37796 23.5965 9.7647 23.3012 12.7876 22.9162C12.873 25.3207 13.0438 27.4814 13.3597 27.9606C14.1454 29.1458 13.6202 31.8627 14.8029 31.6188C15.9856 31.3749 25.2977 29.0089 25.9552 28.4826C26.6127 27.9563 25.0372 26.1165 25.9552 24.5377C26.3181 23.9131 26.7664 22.5396 27.1507 21.0293C32.2828 20.349 36.3219 19.8056 36.3219 19.8056C36.3219 19.8056 34.7464 17.4396 28.3206 18.4921C28.1199 18.5263 27.9107 18.5606 27.6844 18.5948C27.9534 17.1315 28.0772 15.8522 27.9235 15.3388C27.5307 14.0253 22.9963 12.4465 20.3449 13.1054C17.6934 13.7643 21.7581 16.2587 21.7581 16.2587C21.7581 16.2587 21.8051 17.7091 21.8649 19.3992C20.8359 19.5318 19.7642 19.6644 18.6797 19.7971C18.7865 18.4365 18.7651 17.3797 18.4833 17.1786C17.5653 16.5197 16.2546 14.8125 12.7108 15.3388C12.7108 15.3388 12.6851 17.7733 12.7321 20.5073C7.64268 21.102 3.44135 21.5599 3.44135 21.5599C3.44135 21.5599 2.56607 24.0628 6.41302 23.6863L6.40875 23.6906ZM21.9375 21.7224C21.9844 23.1472 22.0186 24.3452 22.0186 24.542C22.0186 25.0683 21.2885 27.9606 20.3406 27.6953C19.3927 27.4301 17.5568 27.4344 17.5568 27.4344C17.5568 27.4344 18.0606 24.7945 18.4107 22.1888C19.5721 22.0348 20.759 21.8807 21.9375 21.7267V21.7224Z" fill="white"></path><path d="M5.62314 26.4717C5.62314 26.4717 7.45909 28.5768 7.28403 29.8903C7.10898 31.2038 4.2227 32.4318 2.99731 32.6928C1.77192 32.9538 0.550802 35.2899 2.91192 35.2899C5.27303 35.2899 7.45055 34.9219 7.8092 36.4622C8.19774 38.1308 9.38897 40.9847 6.32763 41.9473C3.2663 42.91 2.7027 42.3196 1.82743 43.0341C0.947879 43.7529 3.08697 45.9264 4.1373 45.6654C5.18764 45.4044 11.3103 44.7883 11.5708 43.2994C11.8312 41.8104 10.4393 28.4142 10.4393 28.4142C10.4393 28.4142 6.58808 23.2884 5.62314 26.4717Z" fill="white"></path><path d="M38.7684 41.6349C39.379 41.1086 44.2762 38.5671 41.6547 37.9553C39.0288 37.3435 34.9214 37.5189 34.9214 37.5189C34.9214 37.5189 34.1358 30.6817 35.3569 30.5961C36.5781 30.5106 42.6153 28.6665 41.2149 27.2674C39.8145 25.864 35.0922 26.4801 35.0922 26.4801C35.0922 26.4801 37.1075 21.3073 30.4597 22.8861C30.4597 22.8861 30.7201 39.9748 31.2453 41.0273C31.7704 42.0799 38.1493 42.1654 38.7598 41.6392L38.7684 41.6349Z" fill="white"></path><path d="M93.8468 11.4494C93.0612 10.1359 89.7821 5.79738 89.3851 4.61221C88.988 3.42704 87.2887 -0.248259 85.4484 0.0127347C83.6125 0.273728 81.7765 1.06527 82.037 2.51143C82.2974 3.95759 77.968 18.2866 77.968 18.2866C77.968 18.2866 80.4615 25.2521 81.2471 26.6983C82.0327 28.1444 83.4759 32.7439 84.001 33.1418C84.5262 33.5354 85.7046 28.4097 87.2801 26.3046C88.8556 24.1996 91.87 16.7078 92.3952 15.129C92.9203 13.5502 94.6239 12.7629 93.8383 11.4494H93.8468ZM84.7055 4.83042C84.3981 4.83042 83.9626 5.61768 83.8516 6.46912C83.7406 7.32056 83.8516 9.1689 83.8516 9.1689C83.8516 9.1689 83.0446 8.46722 82.8696 8.99348C82.6945 9.51975 82.9123 12.4549 82.955 12.5875C82.9977 12.7201 81.8619 13.1565 81.8619 13.1565V8.24901C81.8619 8.24901 82.3871 6.71728 82.5622 6.46912C82.7372 6.22524 82.8226 5.44226 82.7799 4.61221C82.7372 3.77789 82.9977 3.86774 83.2624 3.69232C83.5271 3.51689 83.9199 2.90506 84.6628 2.24616C85.4057 1.58725 85.8412 1.63432 85.8412 1.63432C87.5918 1.28347 87.2844 3.69232 87.4039 4.65928C87.5235 5.62196 86.8019 5.79738 86.4134 5.84444C86.0248 5.88723 85.9266 5.14276 85.837 4.79191C85.7473 4.44107 85.0087 4.8347 84.7013 4.8347L84.7055 4.83042ZM86.0932 16.6864C85.6662 16.6521 85.9096 14.7482 85.9096 14.7482C85.9096 14.7482 85.8626 15.2445 86.059 14.7482C86.2554 14.2519 86.8788 14.4872 86.977 15.437C87.0752 16.3912 86.5159 16.7206 86.0932 16.6864ZM87.8309 12.8399H87.1093L86.977 7.61578L87.8309 7.22215V12.8442V12.8399Z" fill="white"></path><path d="M114.661 45.1473C114.486 43.1321 114.661 40.5008 113.786 39.9745C112.911 39.4483 111.775 38.2203 111.51 36.9966C111.25 35.7687 110.375 28.9358 110.375 28.6705C110.375 28.4052 109.324 26.129 108.274 24.5502C107.224 22.9714 106.088 22.2697 105.563 20.169C105.038 18.0682 105.038 15.1716 104.077 13.5072C103.116 11.8428 101.451 9.73777 100.755 8.24882C100.055 6.75988 97.7835 5.53192 97.1686 7.46156C96.5581 9.39121 95.3327 12.6344 94.6325 13.9479C93.9322 15.2614 92.2713 17.8928 92.2713 19.2063C92.2713 20.5198 91.1356 21.8333 90.6958 22.9757C90.2561 24.1181 89.6455 27.5196 88.8599 28.6662C88.0743 29.8129 86.5842 30.951 86.6738 32.1789C86.7592 33.4069 85.6107 35.0713 86.012 35.773C86.4134 36.4746 87.4637 39.0161 87.6388 39.5424C87.8138 40.0686 88.4244 41.9084 87.8138 41.6474C87.2033 41.3865 84.1419 34.7247 83.2667 33.8476C82.3914 32.9705 80.295 28.3282 79.6802 26.3986C79.0653 24.4689 77.4941 19.2106 76.5334 17.7216C75.5728 16.2327 74.7829 14.1276 72.4218 14.7437C72.4218 14.7437 68.3997 18.4233 67.7849 19.3004C67.1701 20.1775 66.9993 21.4055 66.3845 22.719C65.7739 24.0325 65.1591 28.1528 64.4589 29.0299C63.7586 29.907 62.1831 31.704 62.2728 33.1716C62.3625 34.6391 62.2728 37.4459 62.2728 37.4459C62.2728 37.4459 60.7912 38.8493 60.5265 39.8119C60.2661 40.7746 59.8263 43.2305 59.1261 44.1932C58.4259 45.1559 57.1151 46.2084 56.4149 47.2609C55.7146 48.3135 53.8787 50.0634 55.1895 50.5897C56.5002 51.116 58.951 50.7651 59.5616 50.5897C60.1721 50.4143 61.7476 48.3991 62.3582 47.6118C62.9688 46.8245 63.5836 45.1559 64.0191 45.6821C64.4546 46.2084 64.6297 47.2609 64.1941 48.0482C63.7586 48.8355 64.1088 49.5372 65.5946 48.1338C67.0804 46.7304 68.9164 45.066 69.5312 44.9805C70.1418 44.8949 71.982 45.2415 72.4175 45.8576C72.853 46.4694 73.5532 44.7195 74.6035 44.8949C75.6539 45.0703 76.7042 47.0855 77.1397 46.6491C77.5752 46.2127 78.4505 44.1932 79.5008 45.5966C80.5512 47 82.037 48.7499 82.037 48.7499C82.037 48.7499 83.1727 47.4364 82.9123 46.033C82.6518 44.6296 84.9233 44.3686 85.6235 45.2457C86.3237 46.1228 87.2844 48.0525 87.2844 48.0525C87.2844 48.0525 88.3347 46.2127 88.8599 46.2127C89.3851 46.2127 91.6608 46.739 92.2713 46.9144C92.8819 47.0898 93.4668 48.844 94.0475 48.9296C94.6325 49.0194 95.7682 47.0898 94.8929 46.0373C94.0176 44.9847 92.3567 43.2348 92.0066 42.9695C91.6565 42.7043 92.6172 42.5331 93.232 42.9695C93.8468 43.4059 96.1183 45.4254 96.7289 45.9474C97.3394 46.4737 99.4401 47.5262 99.4401 48.0525C99.4401 48.5788 99.6151 47.7915 101.016 46.6491C102.416 45.511 103.812 46.7347 103.812 47.0855C103.812 47.4364 105.038 45.6822 106.088 45.5067C107.138 45.3313 110.81 45.2457 111.335 45.6821C111.86 46.1186 111.86 48.1381 112.211 48.2236C112.561 48.3092 115.797 48.5745 115.797 48.5745L115.972 47.5433C115.972 47.5433 114.836 47.1711 114.661 45.1559V45.1473ZM64.4162 36.6458H63.2804V34.4466H64.4162V36.6458ZM73.5788 38.6952C73.5788 39.2001 72.5285 39.2001 72.5285 39.2001C72.5285 39.2001 72.5712 40.8645 72.5285 42.0026C72.4858 43.1407 72.0033 42.7043 71.7429 42.0026C71.4824 41.3009 71.7856 39.2429 72.093 38.4513C72.4004 37.6641 72.5285 34.6819 72.5285 34.6819C74.104 33.3213 73.5788 38.1861 73.5788 38.6909V38.6952ZM76.051 20.2588C75.5258 20.3016 75.2653 19.5999 74.7829 19.3389C74.3004 19.0779 73.9076 19.4715 73.6642 20.1262C73.4209 20.7851 73.6002 21.4825 73.6642 21.7905C73.724 22.0986 72.6523 21.8761 72.6523 21.8761C72.6523 21.8761 72.5925 20.6909 72.4175 19.7283C72.2424 18.7656 71.6319 19.3774 71.017 19.6855C70.4065 19.9935 69.924 20.6482 69.3134 20.9562C68.7029 21.2643 67.6526 22.8859 67.3878 23.7159C67.1274 24.5502 67.5202 27.1345 66.995 27.2072C66.4699 27.28 66.6876 27.9218 66.3845 28.6619C66.0771 29.4021 65.5989 30.0268 65.4238 29.5005C65.2487 28.9743 65.5092 27.9218 65.7312 27.5709C65.949 27.2201 66.4314 24.854 66.4314 24.3705C66.4314 23.887 66.9139 23.057 66.9993 22.5307C67.0847 22.0045 67.8746 21.0418 68.2674 20.5155C68.6602 19.9893 69.7532 18.8512 70.1033 18.6372C70.4534 18.4233 71.064 17.5333 71.6447 17.0071C72.2254 16.4808 73.2074 16.6562 73.297 17.0071C73.3867 17.3579 75.8332 18.1452 75.8332 18.1452C75.8332 18.1452 76.1833 18.3634 76.5761 19.1977C76.9689 20.032 76.5761 20.2075 76.051 20.2503V20.2588ZM79.6375 43.0465C79.3429 43.1792 78.1602 41.994 77.8997 41.7972C77.6393 41.6004 77.7674 39.5295 77.7674 39.5295C77.9296 39.3969 78.6512 39.5295 78.6512 39.5295L78.8262 41.4378C78.8262 41.4378 79.1763 41.3394 79.6332 41.6004C80.0943 41.8614 79.9278 42.9139 79.6332 43.0465H79.6375ZM102.531 23.3608C102.399 23.887 101.481 25.53 100.836 26.3173C100.192 27.1045 99.8414 29.2738 99.3846 30.1081C98.9235 30.9424 98.2702 31.5757 97.745 32.0335C97.2199 32.4956 96.763 35.7815 96.763 35.7815C96.763 35.7815 96.699 33.2186 96.763 32.4271C96.8271 31.6398 97.8133 29.5348 98.6673 28.4822C99.5212 27.4297 100.243 24.931 100.841 23.7501C101.438 22.565 101.485 18.7527 101.485 18.7527C102.928 17.7687 103.39 23.4849 103.321 23.8143C103.257 24.1438 102.664 22.8302 102.536 23.3522L102.531 23.3608ZM104.367 30.7884C104.367 30.7884 103.906 31.182 103.325 30.7884C102.741 30.3948 103.325 26.3173 103.325 26.3173L104.367 26.0563V30.7884Z" fill="white"></path></g><defs><clipPath id="clip0_30_175"><rect width="175" height="54" fill="white"></rect></clipPath></defs></svg>

<svg width="175" height="54" fill="none" xmlns="http://www.w3.org/2000/svg"><g clip-path="url(#a)" fill="#fff"><path d="M128.79 34.447v6.242s-4.133 2.233-3.279 3.748c.853 1.515 3.74 4.732 5.969 4.471 2.228-.26 4.854-2.302 10.037-2.631 5.184-.33 23.287-1.117 23.287-1.117s-.525 2.828.722 3.222c1.246.394 8.197-.197 8.266-3.812.064-3.616-.329-11.634-.329-11.634s-8.595-3.461-8.723-1.531c-.132 1.925.064 8.304.064 8.304H152.93s.064-12.489.525-13.345c.462-.855 2.165-5.848.526-6.837-1.64-.988-10.559-2.892-11.678-2.631-1.119.26 1.311 4.206 1.05 8.215-.26 4.009.133 15.381.133 15.381s-8.659 1.446-9.248 1.117c-.59-.33-.261-2.302.064-2.499.324-.197 1.703-4.929-5.508-4.668l-.004.005ZM.687 46.804s-.525 5.784 0 6.045c.526.261 3.147.197 3.608 0 .461-.196-.132-7.034-3.608-6.045ZM45.818 48.117c-1.115-.659-9.774-2.696-9.774-2.696l4.659 7.428s3.543.659 4.393.261c.854-.394 1.836-4.338.722-4.997v.004ZM23.056 45.421s2.558 4.93 3.544 4.93c.986 0 2.626-1.58 2.493-2.465-.132-.886-3.082-3.123-6.033-2.465h-.004ZM12.429 45.422s1.575 5.652 2.69 5.849c1.114.196 2.626-.985 2.886-2.234.26-1.25-3.083-4.142-5.576-3.615ZM27.19 37.947c-.133-.608-2.298-.347-2.298-.347s.064-2.366.658-2.892c.589-.526 2.843-2.631 1.652-3.025-1.191-.394-12.386 1.489-12.386 1.489s-.009 7.903.41 8.42c.418.518 1.716 1.703 2.796.783 1.08-.92.773-1.489 1.866-1.754 1.093-.261 6.43-.35 6.43-.35s1.008-1.72.875-2.328l-.004.004Zm-4.134-2.58c-.196.659-.546 2.935-.546 2.935s-2.93.218-3.237.261c-.307.043-.504 1.095-.504 1.095h-.751c-.248 0 0-5.172 0-5.172 6.468-2.285 5.235.218 5.038.877v.004ZM6.409 23.69c.969-.094 3.356-.389 6.379-.774.085 2.405.256 4.565.572 5.045.785 1.185.26 3.902 1.443 3.658 1.183-.244 10.495-2.61 11.152-3.136.658-.527-.918-2.367 0-3.945.363-.625.811-1.998 1.196-3.509 5.132-.68 9.17-1.223 9.17-1.223s-1.575-2.366-8-1.314c-.201.034-.41.069-.637.103.27-1.463.393-2.743.24-3.256-.393-1.314-4.928-2.893-7.58-2.234-2.65.66 1.414 3.154 1.414 3.154s.047 1.45.107 3.14c-1.03.133-2.1.265-3.185.398.107-1.36.085-2.417-.197-2.618-.918-.66-2.228-2.366-5.772-1.84 0 0-.026 2.434.021 5.168-5.09.595-9.29 1.053-9.29 1.053s-.876 2.503 2.971 2.126l-.004.005Zm15.528-1.968c.047 1.425.082 2.623.082 2.82 0 .526-.73 3.419-1.678 3.153-.948-.265-2.784-.26-2.784-.26s.504-2.64.854-5.246c1.161-.154 2.348-.308 3.526-.462v-.005Z"/><path d="M5.623 26.472s1.836 2.105 1.661 3.418c-.175 1.314-3.061 2.542-4.287 2.803-1.225.26-2.446 2.597-.085 2.597s4.539-.368 4.897 1.172c.389 1.669 1.58 4.523-1.481 5.485-3.062.963-3.625.373-4.5 1.087-.88.719 1.259 2.892 2.31 2.631 1.05-.26 7.172-.877 7.433-2.366.26-1.489-1.132-14.885-1.132-14.885s-3.85-5.126-4.816-1.942ZM38.768 41.635c.611-.526 5.508-3.068 2.887-3.68-2.626-.611-6.734-.436-6.734-.436s-.785-6.837.436-6.923c1.221-.085 7.258-1.93 5.858-3.329-1.4-1.403-6.123-.787-6.123-.787s2.016-5.173-4.632-3.594c0 0 .26 17.089.785 18.141.525 1.053 6.904 1.138 7.515.612l.008-.004ZM93.847 11.45c-.786-1.314-4.065-5.653-4.462-6.838-.397-1.185-2.096-4.86-3.937-4.6-1.835.262-3.671 1.053-3.411 2.5.26 1.446-4.069 15.775-4.069 15.775s2.493 6.965 3.28 8.411c.785 1.446 2.228 6.046 2.753 6.444.525.393 1.704-4.732 3.28-6.837 1.575-2.105 4.589-9.597 5.114-11.176.525-1.579 2.229-2.366 1.443-3.68h.009Zm-9.141-6.62c-.308 0-.743.788-.854 1.64-.111.85 0 2.699 0 2.699s-.807-.702-.982-.176c-.175.527.042 3.462.085 3.595.043.132-1.093.569-1.093.569V8.248s.525-1.532.7-1.78c.175-.244.26-1.027.218-1.857-.043-.834.218-.744.482-.92.265-.175.658-.787 1.4-1.446.744-.659 1.18-.612 1.18-.612 1.75-.35 1.442 2.058 1.562 3.025.12.963-.602 1.138-.99 1.185-.39.043-.487-.701-.577-1.052-.09-.35-.828.043-1.136.043l.005-.005Zm1.387 11.856c-.427-.034-.183-1.938-.183-1.938s-.047.497.149 0c.196-.496.82-.26.918.689.098.954-.461 1.284-.884 1.25Zm1.738-3.846h-.722l-.132-5.224.854-.394v5.622-.004Z"/><path d="M114.661 45.147c-.175-2.015 0-4.646-.875-5.172-.875-.527-2.011-1.755-2.276-2.978-.26-1.228-1.135-8.061-1.135-8.326 0-.266-1.051-2.542-2.101-4.12-1.05-1.58-2.186-2.281-2.711-4.382-.525-2.1-.525-4.997-1.486-6.662-.961-1.664-2.626-3.77-3.322-5.258-.7-1.49-2.971-2.717-3.586-.787-.61 1.93-1.836 5.172-2.537 6.486-.7 1.313-2.36 3.945-2.36 5.258 0 1.314-1.136 2.627-1.576 3.77-.44 1.142-1.05 4.544-1.836 5.69-.786 1.147-2.276 2.285-2.186 3.513.085 1.228-1.063 2.892-.662 3.594.401.702 1.452 3.243 1.627 3.77.175.526.785 2.365.175 2.104-.61-.26-3.672-6.922-4.547-7.8-.876-.877-2.972-5.519-3.587-7.448-.615-1.93-2.186-7.188-3.147-8.677-.96-1.49-1.75-3.594-4.111-2.978 0 0-4.022 3.68-4.637 4.556-.615.877-.786 2.105-1.4 3.419-.611 1.313-1.226 5.434-1.926 6.31-.7.878-2.276 2.675-2.186 4.143.09 1.467 0 4.274 0 4.274s-1.482 1.403-1.747 2.366c-.26.963-.7 3.419-1.4 4.381-.7.963-2.01 2.015-2.711 3.068-.7 1.052-2.536 2.802-1.225 3.329 1.31.526 3.761.175 4.372 0 .61-.176 2.186-2.19 2.796-2.978.61-.788 1.226-2.456 1.661-1.93.436.526.61 1.579.175 2.366-.435.788-.085 1.49 1.4.086 1.486-1.404 3.322-3.068 3.937-3.154.61-.085 2.451.262 2.886.878.436.611 1.136-1.139 2.186-.963 1.05.175 2.101 2.19 2.537 1.754.435-.436 1.31-2.456 2.36-1.052 1.051 1.403 2.537 3.153 2.537 3.153s1.136-1.314.875-2.717c-.26-1.403 2.011-1.664 2.712-.787.7.877 1.66 2.806 1.66 2.806s1.05-1.84 1.576-1.84c.525 0 2.8.527 3.411.702.61.176 1.196 1.93 1.776 2.016.585.09 1.721-1.84.846-2.893-.875-1.052-2.536-2.802-2.886-3.068-.35-.265.61-.436 1.225 0 .615.437 2.886 2.456 3.497 2.978.61.527 2.711 1.58 2.711 2.105 0 .527.175-.26 1.576-1.403 1.4-1.138 2.796.086 2.796.437 0 .35 1.226-1.404 2.276-1.58 1.05-.175 4.722-.26 5.247.176.525.437.525 2.456.876 2.542.35.085 3.586.35 3.586.35l.175-1.03s-1.136-.373-1.311-2.388v-.009Zm-50.245-8.501H63.28v-2.2h1.136v2.2Zm9.163 2.05c0 .504-1.05.504-1.05.504s.042 1.664 0 2.803c-.043 1.138-.526.701-.786 0-.26-.702.043-2.76.35-3.552.307-.787.435-3.77.435-3.77 1.576-1.36 1.05 3.505 1.05 4.01v.004Zm2.472-18.437c-.525.043-.786-.66-1.268-.92-.483-.261-.875.133-1.119.787-.243.66-.064 1.357 0 1.665.06.308-1.012.085-1.012.085s-.06-1.185-.234-2.148c-.176-.962-.786-.35-1.401-.043-.61.309-1.093.963-1.704 1.271-.61.308-1.66 1.93-1.925 2.76-.26.834.132 3.418-.393 3.491-.525.073-.307.715-.61 1.455-.308.74-.786 1.365-.961.838-.175-.526.085-1.578.307-1.93.218-.35.7-2.716.7-3.2 0-.483.483-1.313.568-1.84.086-.526.876-1.488 1.268-2.015.393-.526 1.486-1.664 1.836-1.878.35-.214.961-1.104 1.542-1.63.58-.526 1.562-.35 1.652 0 .09.35 2.536 1.138 2.536 1.138s.35.218.743 1.053c.393.834 0 1.01-.525 1.052v.009Zm3.587 22.788c-.295.132-1.478-1.053-1.738-1.25-.26-.197-.133-2.267-.133-2.267.163-.133.884 0 .884 0l.175 1.908s.35-.099.807.162c.461.261.295 1.314 0 1.447h.005ZM102.53 23.36c-.132.526-1.05 2.169-1.695 2.956-.644.788-.995 2.957-1.451 3.791-.462.834-1.115 1.468-1.64 1.925-.525.463-.982 3.748-.982 3.748s-.064-2.562 0-3.354c.064-.787 1.05-2.892 1.904-3.945.854-1.052 1.576-3.551 2.174-4.732.597-1.185.644-4.997.644-4.997 1.443-.984 1.905 4.732 1.836 5.061-.064.33-.657-.984-.785-.462l-.005.009Zm1.836 7.427s-.461.394-1.042 0c-.584-.393 0-4.47 0-4.47l1.042-.262v4.732Z"/></g><defs><clipPath id="a"><path fill="#fff" d="M0 0h175v54H0z"/></clipPath></defs></svg>
